<?xml version="1.0" encoding="UTF-8"?>
<map version="1.0" orientation="orthogonal" renderorder="right-down" width="20" height="15" tilewidth="16" tileheight="16" nextobjectid="1">
 <tileset firstgid="1" name="Tiles" tilewidth="16" tileheight="16" tilecount="32" columns="8">
  <image source="../tilesets/Tiles.png" width="128" height="64"/>
 </tileset>
 <layer name="background" width="20" height="15">
  <data>
   <tile gid="9"/>
   <tile gid="12"/>
   <tile gid="12"/>
   <tile gid="12"/>
   <tile gid="12"/>
   <tile gid="12"/>
   <tile gid="12"/>
   <tile gid="12"/>
   <tile gid="12"/>
   <tile gid="12"/>
   <tile gid="12"/>
   <tile gid="12"/>
   <tile gid="12"/>
   <tile gid="12"/>
   <tile gid="12"/>
   <tile gid="12"/>
   <tile gid="12"/>
   <tile gid="12"/>
   <tile gid="12"/>
   <tile gid="9"/>
   <tile gid="4"/>
   <tile gid="2"/>
   <tile gid="2"/>
   <tile gid="2"/>
   <tile gid="2"/>
   <tile gid="2"/>
   <tile gid="2"/>
   <tile gid="2"/>
   <tile gid="2"/>
   <tile gid="2"/>
   <tile gid="2"/>
   <tile gid="2"/>
   <tile gid="2"/>
   <tile gid="2"/>
   <tile gid="2"/>
   <tile gid="2"/>
   <tile gid="2"/>
   <tile gid="2"/>
   <tile gid="2"/>
   <tile gid="11"/>
   <tile gid="4"/>
   <tile gid="10"/>
   <tile gid="10"/>
   <tile gid="10"/>
   <tile gid="10"/>
   <tile gid="10"/>
   <tile gid="10"/>
   <tile gid="10"/>
   <tile gid="10"/>
   <tile gid="10"/>
   <tile gid="10"/>
   <tile gid="10"/>
   <tile gid="10"/>
   <tile gid="10"/>
   <tile gid="10"/>
   <tile gid="10"/>
   <tile gid="10"/>
   <tile gid="10"/>
   <tile gid="10"/>
   <tile gid="11"/>
   <tile gid="4"/>
   <tile gid="1"/>
   <tile gid="1"/>
   <tile gid="1"/>
   <tile gid="1"/>
   <tile gid="1"/>
   <tile gid="1"/>
   <tile gid="1"/>
   <tile gid="1"/>
   <tile gid="1"/>
   <tile gid="1"/>
   <tile gid="1"/>
   <tile gid="1"/>
   <tile gid="1"/>
   <tile gid="1"/>
   <tile gid="1"/>
   <tile gid="1"/>
   <tile gid="1"/>
   <tile gid="1"/>
   <tile gid="11"/>
   <tile gid="4"/>
   <tile gid="1"/>
   <tile gid="1"/>
   <tile gid="1"/>
   <tile gid="1"/>
   <tile gid="1"/>
   <tile gid="1"/>
   <tile gid="1"/>
   <tile gid="1"/>
   <tile gid="1"/>
   <tile gid="1"/>
   <tile gid="1"/>
   <tile gid="1"/>
   <tile gid="1"/>
   <tile gid="1"/>
   <tile gid="1"/>
   <tile gid="1"/>
   <tile gid="1"/>
   <tile gid="1"/>
   <tile gid="11"/>
   <tile gid="4"/>
   <tile gid="1"/>
   <tile gid="1"/>
   <tile gid="1"/>
   <tile gid="1"/>
   <tile gid="1"/>
   <tile gid="1"/>
   <tile gid="1"/>
   <tile gid="1"/>
   <tile gid="1"/>
   <tile gid="1"/>
   <tile gid="1"/>
   <tile gid="1"/>
   <tile gid="1"/>
   <tile gid="1"/>
   <tile gid="1"/>
   <tile gid="1"/>
   <tile gid="1"/>
   <tile gid="1"/>
   <tile gid="11"/>
   <tile gid="4"/>
   <tile gid="1"/>
   <tile gid="1"/>
   <tile gid="1"/>
   <tile gid="1"/>
   <tile gid="1"/>
   <tile gid="1"/>
   <tile gid="1"/>
   <tile gid="1"/>
   <tile gid="1"/>
   <tile gid="1"/>
   <tile gid="1"/>
   <tile gid="1"/>
   <tile gid="1"/>
   <tile gid="1"/>
   <tile gid="1"/>
   <tile gid="1"/>
   <tile gid="1"/>
   <tile gid="1"/>
   <tile gid="11"/>
   <tile gid="4"/>
   <tile gid="1"/>
   <tile gid="1"/>
   <tile gid="1"/>
   <tile gid="1"/>
   <tile gid="1"/>
   <tile gid="1"/>
   <tile gid="1"/>
   <tile gid="1"/>
   <tile gid="1"/>
   <tile gid="1"/>
   <tile gid="1"/>
   <tile gid="1"/>
   <tile gid="1"/>
   <tile gid="1"/>
   <tile gid="1"/>
   <tile gid="1"/>
   <tile gid="1"/>
   <tile gid="1"/>
   <tile gid="11"/>
   <tile gid="4"/>
   <tile gid="1"/>
   <tile gid="1"/>
   <tile gid="1"/>
   <tile gid="1"/>
   <tile gid="1"/>
   <tile gid="1"/>
   <tile gid="1"/>
   <tile gid="1"/>
   <tile gid="1"/>
   <tile gid="1"/>
   <tile gid="1"/>
   <tile gid="1"/>
   <tile gid="1"/>
   <tile gid="1"/>
   <tile gid="1"/>
   <tile gid="1"/>
   <tile gid="1"/>
   <tile gid="1"/>
   <tile gid="11"/>
   <tile gid="4"/>
   <tile gid="1"/>
   <tile gid="1"/>
   <tile gid="1"/>
   <tile gid="1"/>
   <tile gid="1"/>
   <tile gid="1"/>
   <tile gid="1"/>
   <tile gid="1"/>
   <tile gid="1"/>
   <tile gid="1"/>
   <tile gid="1"/>
   <tile gid="1"/>
   <tile gid="1"/>
   <tile gid="1"/>
   <tile gid="1"/>
   <tile gid="1"/>
   <tile gid="1"/>
   <tile gid="1"/>
   <tile gid="11"/>
   <tile gid="4"/>
   <tile gid="1"/>
   <tile gid="1"/>
   <tile gid="1"/>
   <tile gid="1"/>
   <tile gid="1"/>
   <tile gid="1"/>
   <tile gid="1"/>
   <tile gid="1"/>
   <tile gid="1"/>
   <tile gid="1"/>
   <tile gid="1"/>
   <tile gid="1"/>
   <tile gid="1"/>
   <tile gid="1"/>
   <tile gid="1"/>
   <tile gid="1"/>
   <tile gid="1"/>
   <tile gid="1"/>
   <tile gid="11"/>
   <tile gid="4"/>
   <tile gid="1"/>
   <tile gid="1"/>
   <tile gid="1"/>
   <tile gid="1"/>
   <tile gid="1"/>
   <tile gid="1"/>
   <tile gid="1"/>
   <tile gid="1"/>
   <tile gid="1"/>
   <tile gid="1"/>
   <tile gid="1"/>
   <tile gid="1"/>
   <tile gid="1"/>
   <tile gid="1"/>
   <tile gid="1"/>
   <tile gid="1"/>
   <tile gid="1"/>
   <tile gid="1"/>
   <tile gid="11"/>
   <tile gid="4"/>
   <tile gid="1"/>
   <tile gid="1"/>
   <tile gid="1"/>
   <tile gid="1"/>
   <tile gid="1"/>
   <tile gid="1"/>
   <tile gid="1"/>
   <tile gid="1"/>
   <tile gid="1"/>
   <tile gid="1"/>
   <tile gid="1"/>
   <tile gid="1"/>
   <tile gid="1"/>
   <tile gid="1"/>
   <tile gid="1"/>
   <tile gid="1"/>
   <tile gid="1"/>
   <tile gid="1"/>
   <tile gid="11"/>
   <tile gid="4"/>
   <tile gid="1"/>
   <tile gid="1"/>
   <tile gid="1"/>
   <tile gid="1"/>
   <tile gid="1"/>
   <tile gid="1"/>
   <tile gid="1"/>
   <tile gid="1"/>
   <tile gid="1"/>
   <tile gid="1"/>
   <tile gid="1"/>
   <tile gid="1"/>
   <tile gid="1"/>
   <tile gid="1"/>
   <tile gid="1"/>
   <tile gid="1"/>
   <tile gid="1"/>
   <tile gid="1"/>
   <tile gid="11"/>
   <tile gid="9"/>
   <tile gid="3"/>
   <tile gid="3"/>
   <tile gid="3"/>
   <tile gid="3"/>
   <tile gid="3"/>
   <tile gid="3"/>
   <tile gid="3"/>
   <tile gid="3"/>
   <tile gid="3"/>
   <tile gid="3"/>
   <tile gid="3"/>
   <tile gid="3"/>
   <tile gid="3"/>
   <tile gid="3"/>
   <tile gid="3"/>
   <tile gid="3"/>
   <tile gid="3"/>
   <tile gid="3"/>
   <tile gid="9"/>
  </data>
 </layer>
 <layer name="Tile Layer 1" width="20" height="15">
  <data>
   <tile gid="0"/>
   <tile gid="0"/>
   <tile gid="0"/>
   <tile gid="0"/>
   <tile gid="0"/>
   <tile gid="0"/>
   <tile gid="0"/>
   <tile gid="0"/>
   <tile gid="0"/>
   <tile gid="0"/>
   <tile gid="0"/>
   <tile gid="0"/>
   <tile gid="0"/>
   <tile gid="0"/>
   <tile gid="0"/>
   <tile gid="0"/>
   <tile gid="0"/>
   <tile gid="0"/>
   <tile gid="0"/>
   <tile gid="0"/>
   <tile gid="0"/>
   <tile gid="0"/>
   <tile gid="0"/>
   <tile gid="0"/>
   <tile gid="0"/>
   <tile gid="0"/>
   <tile gid="0"/>
   <tile gid="0"/>
   <tile gid="0"/>
   <tile gid="0"/>
   <tile gid="0"/>
   <tile gid="0"/>
   <tile gid="0"/>
   <tile gid="0"/>
   <tile gid="0"/>
   <tile gid="0"/>
   <tile gid="0"/>
   <tile gid="0"/>
   <tile gid="0"/>
   <tile gid="0"/>
   <tile gid="0"/>
   <tile gid="0"/>
   <tile gid="0"/>
   <tile gid="0"/>
   <tile gid="0"/>
   <tile gid="0"/>
   <tile gid="0"/>
   <tile gid="0"/>
   <tile gid="0"/>
   <tile gid="0"/>
   <tile gid="0"/>
   <tile gid="0"/>
   <tile gid="0"/>
   <tile gid="0"/>
   <tile gid="0"/>
   <tile gid="0"/>
   <tile gid="0"/>
   <tile gid="0"/>
   <tile gid="0"/>
   <tile gid="0"/>
   <tile gid="0"/>
   <tile gid="0"/>
   <tile gid="0"/>
   <tile gid="0"/>
   <tile gid="17"/>
   <tile gid="0"/>
   <tile gid="0"/>
   <tile gid="0"/>
   <tile gid="0"/>
   <tile gid="0"/>
   <tile gid="17"/>
   <tile gid="0"/>
   <tile gid="0"/>
   <tile gid="0"/>
   <tile gid="0"/>
   <tile gid="17"/>
   <tile gid="0"/>
   <tile gid="0"/>
   <tile gid="0"/>
   <tile gid="0"/>
   <tile gid="0"/>
   <tile gid="0"/>
   <tile gid="0"/>
   <tile gid="0"/>
   <tile gid="2"/>
   <tile gid="0"/>
   <tile gid="0"/>
   <tile gid="0"/>
   <tile gid="0"/>
   <tile gid="0"/>
   <tile gid="2"/>
   <tile gid="0"/>
   <tile gid="0"/>
   <tile gid="0"/>
   <tile gid="0"/>
   <tile gid="2"/>
   <tile gid="0"/>
   <tile gid="0"/>
   <tile gid="0"/>
   <tile gid="0"/>
   <tile gid="0"/>
   <tile gid="0"/>
   <tile gid="0"/>
   <tile gid="0"/>
   <tile gid="10"/>
   <tile gid="0"/>
   <tile gid="0"/>
   <tile gid="0"/>
   <tile gid="0"/>
   <tile gid="0"/>
   <tile gid="10"/>
   <tile gid="0"/>
   <tile gid="0"/>
   <tile gid="0"/>
   <tile gid="0"/>
   <tile gid="10"/>
   <tile gid="0"/>
   <tile gid="0"/>
   <tile gid="0"/>
   <tile gid="0"/>
   <tile gid="0"/>
   <tile gid="0"/>
   <tile gid="0"/>
   <tile gid="0"/>
   <tile gid="1"/>
   <tile gid="1"/>
   <tile gid="1"/>
   <tile gid="1"/>
   <tile gid="1"/>
   <tile gid="1"/>
   <tile gid="1"/>
   <tile gid="1"/>
   <tile gid="1"/>
   <tile gid="1"/>
   <tile gid="1"/>
   <tile gid="1"/>
   <tile gid="0"/>
   <tile gid="0"/>
   <tile gid="0"/>
   <tile gid="0"/>
   <tile gid="0"/>
   <tile gid="0"/>
   <tile gid="0"/>
   <tile gid="0"/>
   <tile gid="0"/>
   <tile gid="0"/>
   <tile gid="0"/>
   <tile gid="0"/>
   <tile gid="0"/>
   <tile gid="0"/>
   <tile gid="0"/>
   <tile gid="0"/>
   <tile gid="0"/>
   <tile gid="0"/>
   <tile gid="0"/>
   <tile gid="0"/>
   <tile gid="0"/>
   <tile gid="0"/>
   <tile gid="0"/>
   <tile gid="0"/>
   <tile gid="0"/>
   <tile gid="0"/>
   <tile gid="0"/>
   <tile gid="0"/>
   <tile gid="0"/>
   <tile gid="0"/>
   <tile gid="0"/>
   <tile gid="0"/>
   <tile gid="0"/>
   <tile gid="0"/>
   <tile gid="0"/>
   <tile gid="0"/>
   <tile gid="0"/>
   <tile gid="0"/>
   <tile gid="0"/>
   <tile gid="0"/>
   <tile gid="0"/>
   <tile gid="0"/>
   <tile gid="0"/>
   <tile gid="0"/>
   <tile gid="0"/>
   <tile gid="0"/>
   <tile gid="0"/>
   <tile gid="0"/>
   <tile gid="17"/>
   <tile gid="0"/>
   <tile gid="0"/>
   <tile gid="0"/>
   <tile gid="0"/>
   <tile gid="0"/>
   <tile gid="17"/>
   <tile gid="0"/>
   <tile gid="0"/>
   <tile gid="0"/>
   <tile gid="0"/>
   <tile gid="17"/>
   <tile gid="0"/>
   <tile gid="0"/>
   <tile gid="0"/>
   <tile gid="0"/>
   <tile gid="0"/>
   <tile gid="0"/>
   <tile gid="0"/>
   <tile gid="0"/>
   <tile gid="2"/>
   <tile gid="0"/>
   <tile gid="0"/>
   <tile gid="0"/>
   <tile gid="0"/>
   <tile gid="0"/>
   <tile gid="2"/>
   <tile gid="0"/>
   <tile gid="0"/>
   <tile gid="0"/>
   <tile gid="0"/>
   <tile gid="2"/>
   <tile gid="0"/>
   <tile gid="0"/>
   <tile gid="0"/>
   <tile gid="0"/>
   <tile gid="0"/>
   <tile gid="0"/>
   <tile gid="0"/>
   <tile gid="0"/>
   <tile gid="10"/>
   <tile gid="0"/>
   <tile gid="0"/>
   <tile gid="0"/>
   <tile gid="0"/>
   <tile gid="0"/>
   <tile gid="10"/>
   <tile gid="0"/>
   <tile gid="0"/>
   <tile gid="0"/>
   <tile gid="0"/>
   <tile gid="10"/>
   <tile gid="0"/>
   <tile gid="0"/>
   <tile gid="0"/>
   <tile gid="0"/>
   <tile gid="0"/>
   <tile gid="0"/>
   <tile gid="0"/>
   <tile gid="0"/>
   <tile gid="0"/>
   <tile gid="0"/>
   <tile gid="0"/>
   <tile gid="0"/>
   <tile gid="0"/>
   <tile gid="0"/>
   <tile gid="0"/>
   <tile gid="0"/>
   <tile gid="0"/>
   <tile gid="0"/>
   <tile gid="0"/>
   <tile gid="0"/>
   <tile gid="0"/>
   <tile gid="0"/>
   <tile gid="0"/>
   <tile gid="0"/>
   <tile gid="0"/>
   <tile gid="0"/>
   <tile gid="0"/>
   <tile gid="0"/>
   <tile gid="0"/>
   <tile gid="0"/>
   <tile gid="0"/>
   <tile gid="0"/>
   <tile gid="0"/>
   <tile gid="0"/>
   <tile gid="0"/>
   <tile gid="0"/>
   <tile gid="0"/>
   <tile gid="0"/>
   <tile gid="0"/>
   <tile gid="0"/>
   <tile gid="0"/>
   <tile gid="0"/>
   <tile gid="0"/>
   <tile gid="0"/>
   <tile gid="0"/>
   <tile gid="0"/>
   <tile gid="0"/>
   <tile gid="0"/>
   <tile gid="0"/>
   <tile gid="0"/>
   <tile gid="0"/>
   <tile gid="0"/>
   <tile gid="0"/>
   <tile gid="0"/>
   <tile gid="0"/>
   <tile gid="0"/>
   <tile gid="0"/>
   <tile gid="0"/>
   <tile gid="0"/>
   <tile gid="0"/>
   <tile gid="0"/>
   <tile gid="0"/>
   <tile gid="0"/>
   <tile gid="0"/>
  </data>
 </layer>
</map>
